!!!COM: Palestrina, Giovanni Perluigi da
!!!OPR: In semidupl. maj. (I)
!!!OTL: Gloria
**kern	**kern	**kern	**kern	**kern
*Ibass	*Itenor	*Itenor	*Icalto	*Icant
!Bassus	!Tenor 2	!Tenor 1	!Altus	!Cantus
*clefF4	*clefGv2	*clefGv2	*clefG2	*clefG2
*k[b-]	*k[b-]	*k[b-]	*k[b-]	*k[b-]
*F:ion	*F:ion	*F:ion	*F:ion	*F:ion
*M4/2	*M4/2	*M4/2	*M4/2	*M4/2
=1	=1	=1	=1	=1
1r	0r	0r	0c	0r
[1F	.	.	.	.
=2	=2	=2	=2	=2
1F]	0r	0r	1d	0r
1G	.	.	1e	.
=3	=3	=3	=3	=3
1A	0r	0r	1c	0r
1F	.	.	2.f	.
.	.	.	4e	.
=4	=4	=4	=4	=4
1.B-	0r	1r	4d	0f
.	.	.	4c	.
.	.	.	2.d	.
.	.	[1B-	.	.
.	.	.	4e	.
2A	.	.	[2f	.
=5	=5	=5	=5	=5
1G	0r	1B-]	2f]	1g
.	.	.	2e	.
1F	.	1c	1f	1a
=6	=6	=6	=6	=6
1r	0r	1d	2.B-	1f
.	.	.	4c	.
1G	.	1B-	2d	[1b-
.	.	.	2G	.
=7	=7	=7	=7	=7
0E-	0r	1.e-	2B-	2b-]
.	.	.	1c	2a
.	.	.	.	1g
.	.	2d	[2B-	.
=8	=8	=8	=8	=8
1F	1r	1c	2B-]	1f
.	.	.	2A	.
2.BB-	[1F	1B-	2B-	2.d
.	.	.	[2d	.
4C	.	.	.	4e
=9	=9	=9	=9	=9
4D	1F]	2.A	2d]	4f
4E	.	.	.	4g
1F	.	.	2c	2a
.	.	4B-	.	.
.	1G	2c	1c	1g
2E	.	2C	.	.
=10	=10	=10	=10	=10
0D	1A	2.F	[0d	2f
.	.	.	.	4d
.	.	4G	.	4e
.	1F	1A	.	4f
.	.	.	.	4g
.	.	.	.	2a
=11	=11	=11	=11	=11
0BB-	1.B-	1.D	0d]	4g
.	.	.	.	4f
.	.	.	.	4b-
.	.	.	.	4a
.	.	.	.	4g
.	.	.	.	4f
.	2A	2D	.	[2f
=12	=12	=12	=12	=12
0C	0G	4E	0c	2f]
.	.	4C	.	.
.	.	2.c	.	4e
.	.	.	.	4d
.	.	.	.	1e
.	.	4B-	.	.
.	.	2G	.	.
=13	=13	=13	=13	=13
[0FF	[0F	[0A	[0c	[0f
=14	=14	=14	=14	=14
0FF]	0F]	0A]	0c]	0f]
!! Benedicimus te
*Ibass	*Itenor	*Itenor	*Icalto	*Icant
!Bassus	!Tenor 2	!Tenor 1	!Altus	!Cantus
*clefF4	*clefGv2	*clefGv2	*clefG2	*clefG2
*k[b-]	*k[b-]	*k[b-]	*k[b-]	*k[b-]
*F:ion	*F:ion	*F:ion	*F:ion	*F:ion
*M4/2	*M4/2	*M4/2	*M4/2	*M4/2
=15	=15	=15	=15	=15
0r	1r	0r	0r	1g
.	1c	.	.	1e
=16	=16	=16	=16	=16
0r	1A	0r	0r	2f
.	.	.	.	2e
.	[1B-	.	.	2.d
.	.	.	.	4e
=17	=17	=17	=17	=17
0r	2B-]	0r	0r	2f
.	4A	.	.	2.g
.	4G	.	.	.
.	1A	.	.	.
.	.	.	.	4f
.	.	.	.	[2f
=18	=18	=18	=18	=18
1C	2G	1c	1r	2f]
.	2G	.	.	2e
1FF	1F	1A	1c	2f
.	.	.	.	[2f
=19	=19	=19	=19	=19
2.BB-	1.D	1.B-	1F	2f]
.	.	.	.	2f
4AA	.	.	.	.
1GG	.	.	1B-	1g
.	2D	4A	.	.
.	.	4G	.	.
=20	=20	=20	=20	=20
1FF	1F	1A	1c	2c
.	.	.	.	1f
1C	2G	2G	1c	.
.	2c	2G	.	2e
=21	=21	=21	=21	=21
[0FF	[0A	[0F	[0c	[0f
=22	=22	=22	=22	=22
0FF]	0A]	0F]	0c]	0f]
!! Glorificamus te
*Ibass	*Itenor	*Itenor	*Icalto	*Icant
!Bassus	!Tenor 2	!Tenor 1	!Altus	!Cantus
*clefF4	*clefGv2	*clefGv2	*clefG2	*clefG2
*k[b-]	*k[b-]	*k[b-]	*k[b-]	*k[b-]
*F:ion	*F:ion	*F:ion	*F:ion	*F:ion
*M4/2	*M4/2	*M4/2	*M4/2	*M4/2
=23	=23	=23	=23	=23
0r	0r	0r	1g	0r
.	.	.	1e	.
=24	=24	=24	=24	=24
0r	1r	0r	1f	0r
.	1c	.	[1e	.
=25	=25	=25	=25	=25
0r	1A	0r	2e]	0r
.	.	.	4d	.
.	.	.	4c	.
.	1B-	.	2d	.
.	.	.	2d	.
=26	=26	=26	=26	=26
0r	1.A	0r	4c	1cc
.	.	.	4B-	.
.	.	.	4A	.
.	.	.	4G	.
.	.	.	2F	1a
.	4G	.	2f	.
.	4F	.	.	.
=27	=27	=27	=27	=27
1r	2G	0r	2d	1b-
.	2G	.	2e	.
1F	2F	.	2f	[1a
.	[2A	.	2c	.
=28	=28	=28	=28	=28
1D	2A]	0r	2.d	2a]
.	1B-	.	.	4g
.	.	.	4c	4f
1E-	.	.	2B-	2g
.	2G	.	2c	2g
=29	=29	=29	=29	=29
1.D	1A	0r	0d	1.f
.	1B-	.	.	.
4C	.	.	.	4e
4BB-	.	.	.	4d
=30	=30	=30	=30	=30
0C	2A	1r	2r	2e
.	4G	.	1c	1f
.	4F	.	.	.
.	1G	1c	.	.
.	.	.	2G	2e
=31	=31	=31	=31	=31
1FF	2.F	1A	1c	1f
.	4E	.	.	.
2.BB-	1D	1B-	1d	2r
.	.	.	.	2d
4C	.	.	.	.
=32	=32	=32	=32	=32
2.D	2r	1.A	1f	4d
.	.	.	.	4e
.	2d	.	.	4f
4E	.	.	.	4g
1F	2c	.	[1f	2a
.	2c	4G	.	2a
.	.	4F	.	.
=33	=33	=33	=33	=33
0C	1c	1G	2f]	1cc
.	.	.	4e	.
.	.	.	4d	.
.	1c	1G	1e	1g
=34	=34	=34	=34	=34
[0FF	[0c	[0F	[0f	[0a
=35	=35	=35	=35	=35
0FF]	0c]	0F]	0f]	0a]
*	*	*	*	*-
!! Domine Deus Rex
*Ibass	*Itenor	*Icalto	*Icant
!Bassus	!Tenor	!Altus	!Cantus
*clefF4	*clefGv2	*clefG2	*clefG2
*k[b-]	*k[b-]	*k[b-]	*k[b-]
*F:ion	*F:ion	*F:ion	*F:ion
*M4/2	*M4/2	*M4/2	*M4/2
=36	=36	=36	=36
0r	0r	1r	1f
.	.	1c	1cc
=37	=37	=37	=37
0r	0r	1f	2cc
.	.	.	2cc
.	.	2f	2.cc
.	.	2f	.
.	.	.	4b-
=38	=38	=38	=38
0r	1F	1f	4a
.	.	.	4g
.	.	.	1a
.	1c	2.e	.
.	.	.	4g
.	.	4d	4f
=39	=39	=39	=39
0r	2c	4e	2g
.	.	4f	.
.	2c	1e	2a
.	1c	.	[1g
.	.	4d	.
.	.	4c	.
=40	=40	=40	=40
0r	2B	2d	1g]
.	1c	2e	.
.	.	2c	2e
.	4B-	2d	2f
.	4A	.	.
=41	=41	=41	=41
0r	2G	2e	2g
.	2F	2f	2.a
.	1A	1c	.
.	.	.	4g
.	.	.	[2f
=42	=42	=42	=42
1C	1G	2r	2f]
.	.	2c	2e
1F	1F	2c	2f
.	.	2c	2a
=43	=43	=43	=43
2F	2r	2.c	2a
2F	2c	.	2a
.	.	4B-	.
1F	2c	4A	1a
.	.	4G	.
.	2c	2F	.
=44	=44	=44	=44
2E	1c	2G	2g
1F	.	2F	1a
.	2F	1c	.
4E	2G	.	4g
4D	.	.	4f
=45	=45	=45	=45
2C	2A	2c	2e
2BB-	2.B-	1d	2g
1D	.	.	2f
.	4A	.	.
.	2F	2B-	[2f
=46	=46	=46	=46
1C	1G	1c	2f]
.	.	.	2e
1FF	2.F	2r	2f
.	.	[2c	[2a
.	4E	.	.
=47	=47	=47	=47
2r	1D	2c]	2a]
1F	.	2B-	4g
.	.	.	4f
.	1C	1c	2a
2E	.	.	2g
=48	=48	=48	=48
1F	0r	2A	2.a
.	.	1F	.
.	.	.	4g
2D	.	.	4f
.	.	.	4e
2BB-	.	[2G	2d
=49	=49	=49	=49
1C	2r	2G]	1e
.	1c	2A	.
2.D	.	2F	1f
.	2B-	[2f	.
4D	.	.	.
=50	=50	=50	=50
1C	1c	2f]	0r
.	.	2e	.
1r	2A	1f	.
.	2F	.	.
=51	=51	=51	=51
0r	1G	2d	1r
.	.	2B-	.
.	2.A	1c	2r
.	.	.	[2cc
.	4A	.	.
=52	=52	=52	=52
0r	2G	2.d	2cc]
.	2G	.	2b-
.	.	4d	.
.	2A	[1c	1cc
.	2E	.	.
=53	=53	=53	=53
2r	2.F	1c_	2a
1F	.	.	2f
.	8E	.	.
.	8D	.	.
.	1C	1c_	1g
2E	.	.	.
=54	=54	=54	=54
1F	2r	1c]	1.a
.	2c	.	.
2D	1d	2r	.
2BB-	.	[2f	2b-
=55	=55	=55	=55
1C	1c	2f]	2a
.	.	2e	2.g
1D	2A	2d	.
.	.	.	4f
.	2F	2A	[2f
=56	=56	=56	=56
1C	1G	1c	2f]
.	.	.	2e
1BB-	1B-	2d	2.f
.	.	2d	.
.	.	.	4g
=57	=57	=57	=57
[0FF	[0c	[0f	[0a
=58	=58	=58	=58
0FF]	0c]	0f]	0a]
*-	*-	*-	*-
!! Domine Deus Agnus
**kern	**kern	**kern	**kern	**kern
*Ibass	*Itenor	*Itenor	*Icalto	*Icant
!Bassus	!Tenor 2	!Tenor 1	!Altus	!Cantus
*clefF4	*clefGv2	*clefGv2	*clefG2	*clefG2
*k[b-]	*k[b-]	*k[b-]	*k[b-]	*k[b-]
*F:ion	*F:ion	*F:ion	*F:ion	*F:ion
*M4/2	*M4/2	*M4/2	*M4/2	*M4/2
=59	=59	=59	=59	=59
0r	0r	0r	2r	1f
.	.	.	1f	.
.	.	.	.	1cc
.	.	.	4e	.
.	.	.	4d	.
=60	=60	=60	=60	=60
0r	0r	0r	2e	1cc
.	.	.	2f	.
.	.	.	2d	1b-
.	.	.	[2g	.
=61	=61	=61	=61	=61
0r	1F	0r	4g]	1a
.	.	.	4f	.
.	.	.	1f	.
.	1c	.	.	1g
.	.	.	2e	.
=62	=62	=62	=62	=62
2r	2.c	1F	1f	1f
1F	.	.	.	.
.	4B-	.	.	.
.	2A	1c	1r	1r
4E	4G	.	.	.
4D	4F	.	.	.
=63	=63	=63	=63	=63
2E	2G	1c	0r	0r
2F	2A	.	.	.
2D	2F	1B-	.	.
[2G	2G	.	.	.
=64	=64	=64	=64	=64
4G]	2D	1A	0r	1r
4F	.	.	.	.
1F	2F	.	.	.
.	1C	1G	.	2r
2E	.	.	.	[2cc
=65	=65	=65	=65	=65
1F	1c	1F	2r	2cc]
.	.	.	1c	2a
1r	[1A	1F	.	1cc
.	.	.	2A	.
=66	=66	=66	=66	=66
0r	1A]	1D	1d	2f
.	.	.	.	1a
.	2r	[1F	4c	.
.	.	.	4B-	.
.	[2c	.	4A	2f
.	.	.	4G	.
=67	=67	=67	=67	=67
0r	2c]	1F]	2F	1a
.	2A	.	2.f	.
.	1c	1C	.	2g
.	.	.	4e	.
.	.	.	4e	[2cc
.	.	.	8d	.
.	.	.	8c	.
=68	=68	=68	=68	=68
1r	1G	0r	1d	2cc]
.	.	.	.	2b
2r	1A	.	1c	2.cc
[2F	.	.	.	.
.	.	.	.	4b-
=69	=69	=69	=69	=69
2F]	4D	1D	1d	4a
.	4E	.	.	4g
2D	4F	.	.	2.a
.	4G	.	.	.
1F	1A	1C	1c	.
.	.	.	.	4g
.	.	.	.	[2f
=70	=70	=70	=70	=70
1C	1G	2r	2r	2f]
.	.	1C	1c	2e
1r	1A	.	.	1f
.	.	2D	2d	.
=71	=71	=71	=71	=71
0r	0r	2E	2e	2r
.	.	1F	1f	2c
.	.	.	.	2d
.	.	2E	2e	2e
=72	=72	=72	=72	=72
1r	2r	1D	1d	2f
.	1G	.	.	2g
1C	.	1C	1c	2.e
.	2A	.	.	.
.	.	.	.	4c
=73	=73	=73	=73	=73
2D	2B-	2F	1r	2f
2E	2.c	2G	.	4e
.	.	.	.	4d
[1F	.	1A	2r	1c
.	4B-	.	.	.
.	4A	.	2c	.
.	4G	.	.	.
=74	=74	=74	=74	=74
2F]	2A	1r	2d	2r
2E	2G	.	2e	2g
1D	1F	2r	[1f	2a
.	.	2F	.	2b-
=75	=75	=75	=75	=75
1C	1r	2G	2f]	2.cc
.	.	2A	2e	.
.	.	.	.	8b-
.	.	.	.	8cc
1BB-	1F	[1B-	2d	4dd
.	.	.	.	4cc
.	.	.	2d	4b-
.	.	.	.	4a
=76	=76	=76	=76	=76
2E-	2G	2B-]	2e-	2g
2F	2A	2A	2c	1f
1C	2c	1G	1c	.
.	2G	.	.	2e
=77	=77	=77	=77	=77
[0FF	[0A	[0F	[0c	[0f
=78	=78	=78	=78	=78
0FF]	0A]	0F]	0c]	0f]
!! Qui tollis
*Ibass	*Itenor	*Itenor	*Icalto	*Icant
!Bassus	!Tenor 2	!Tenor 1	!Altus	!Cantus
*clefF4	*clefGv2	*clefGv2	*clefG2	*clefG2
*k[b-]	*k[b-]	*k[b-]	*k[b-]	*k[b-]
*F:ion	*F:ion	*F:ion	*F:ion	*F:ion
*M4/2	*M4/2	*M4/2	*M4/2	*M4/2
=79	=79	=79	=79	=79
0r	1F	0r	0r	0r
.	1E	.	.	.
=80	=80	=80	=80	=80
0r	1F	1c	1r	0r
.	1D	1B	1f	.
=81	=81	=81	=81	=81
0r	1C	1c	1e	1r
.	1F	1A	1f	1cc
=82	=82	=82	=82	=82
0r	1G	1G	1d	1b
.	1A	2r	1c	1cc
.	.	2c	.	.
=83	=83	=83	=83	=83
0r	1F	2d	1f	1a
.	.	1c	.	.
.	1G	.	2e	1g
.	.	2B-	2d	.
=84	=84	=84	=84	=84
0r	1c	1A	2e	2a
.	.	.	2f	1cc
.	1d	1G	2.g	.
.	.	.	.	2b-
.	.	.	4f	.
=85	=85	=85	=85	=85
1C	1c	2r	4e	2a
.	.	.	4d	.
.	.	2G	2e	2.g
1BB	2r	2G	1d	.
.	.	.	.	4f
.	2G	2G	.	2d
=86	=86	=86	=86	=86
1C	2G	1E	2r	1e
.	2G	.	2c	.
1AA	2A	2F	2c	1r
.	[2c	2E	2c	.
=87	=87	=87	=87	=87
1GG	2c]	1G	1.d	2r
.	2B-	.	.	2g
1BB-	1d	1D	.	2f
.	.	.	[2f	2f
=88	=88	=88	=88	=88
1C	1c	2r	2f]	2a
.	.	2G	2e	1g
1D	1r	2B-	1d	.
.	.	2A	.	2f
=89	=89	=89	=89	=89
1C	2r	1c	1G	4e
.	.	.	.	4f
.	2c	.	.	4g
.	.	.	.	4e
1D	2A	2.F	1r	4f
.	.	.	.	4g
.	[2d	.	.	[2a
.	.	4G	.	.
=90	=90	=90	=90	=90
1F	2d]	1A	0r	4a]
.	.	.	.	4g
.	1c	.	.	1f
1G	.	1B-	.	.
.	[2B-	.	.	2e
=91	=91	=91	=91	=91
[0F	2B-]	1c	2r	1f
.	4A	.	1c	.
.	4G	.	.	.
.	[1A	1r	.	[1cc
.	.	.	2B-	.
=92	=92	=92	=92	=92
1F]	1A]	1.c	2A	2cc]
.	.	.	2G	2b-
1r	[1c	.	[1F	2a
.	.	2B-	.	2g
=93	=93	=93	=93	=93
1.F	2c]	2A	1F]	1f
.	2B-	2G	.	.
.	2A	2F	[1f	1c
2E	2G	2G	.	.
=94	=94	=94	=94	=94
2D	1F	2.A	2f]	2d
2C	.	.	2e	2e
.	.	4G	.	.
[1BB-	2r	2B-	2d	1f
.	[2F	2c	2c	.
=95	=95	=95	=95	=95
1BB-]	2F]	1.d	2B-	1r
.	2G	.	2B-	.
1r	2.B-	.	2d	1f
.	.	2c	[2f	.
.	4A	.	.	.
=96	=96	=96	=96	=96
0r	1G	1B-	2f]	2g
.	.	.	2e	1b-
.	2.F	1c	2.f	.
.	.	.	.	2a
.	4G	.	4e	.
=97	=97	=97	=97	=97
0r	2A	0r	2c	2cc
.	2B-	.	2d	4b-
.	.	.	.	4a
.	[1c	.	2e	2g
.	.	.	[2f	2a
=98	=98	=98	=98	=98
1C	1c]	1r	2f]	1g
.	.	.	2e	.
2D	1A	1F	2.f	2f
[2F	.	.	.	[2a
.	.	.	8e	.
.	.	.	8d	.
=99	=99	=99	=99	=99
2F]	0r	2A	1c	2a]
2E	.	2c	.	2g
2G	.	2B-	1r	2b-
4F	.	[2d	.	4a
4E	.	.	.	4g
=100	=100	=100	=100	=100
2D	1r	2d]	2r	2f
2E	.	1c	2c	2g
1D	1F	.	2d	2f
.	.	2B	2f	2d
=101	=101	=101	=101	=101
2C	2G	2c	2e	2e
4BB-	1B-	2.F	1d	2f
4C	.	.	.	.
4D	.	.	.	[1f
4E	.	4G	.	.
[2F	2A	[2A	4c	.
.	.	.	4B-	.
=102	=102	=102	=102	=102
2F]	2c	2A]	2A	1f]
2BB-	4B-	4G	2d	.
.	4A	4F	.	.
[1C	2G	2E	2e	[1cc
.	2A	2C	[2f	.
=103	=103	=103	=103	=103
0C]	0G	0c	2f]	0cc]
.	.	.	4e	.
.	.	.	4d	.
.	.	.	1e	.
=104	=104	=104	=104	=104
[0FF	[0F	[0c	[0f	[0a
=105	=105	=105	=105	=105
0FF]	0F]	0c]	0f]	0a]
!! Quoniam
*Ibass	*Itenor	*Itenor	*Icalto	*Icant
!Bassus	!Tenor 2	!Tenor 1	!Altus	!Cantus
*clefF4	*clefGv2	*clefGv2	*clefG2	*clefG2
*k[b-]	*k[b-]	*k[b-]	*k[b-]	*k[b-]
*F:ion	*F:ion	*F:ion	*F:ion	*F:ion
*M4/2	*M4/2	*M4/2	*M4/2	*M4/2
=106	=106	=106	=106	=106
0r	0r	0r	1r	1.f
.	.	.	2r	.
.	.	.	[2c	2g
=107	=107	=107	=107	=107
0r	0r	0r	2c]	2a
.	.	.	2d	2f
.	.	.	2e	[1cc
.	.	.	2c	.
=108	=108	=108	=108	=108
0r	0r	0r	1.f	2cc]
.	.	.	.	2b-
.	.	.	.	2a
.	.	.	2e	2g
=109	=109	=109	=109	=109
0r	1.F	0r	2d	2.f
.	.	.	1c	.
.	.	.	.	4e
.	.	.	.	1d
.	2G	.	2B-	.
=110	=110	=110	=110	=110
0r	2A	0r	2c	2c
.	2F	.	2A	2.f
.	[1B-	.	1d	.
.	.	.	.	4d
.	.	.	.	[2g
=111	=111	=111	=111	=111
1.BB-	2B-]	0r	1.d	4g]
.	.	.	.	4f
.	2A	.	.	1f
.	1G	.	.	.
2C	.	.	4c	2e
.	.	.	4B-	.
=112	=112	=112	=112	=112
1D	2.F	2r	1A	1f
.	.	1F	.	.
.	4E	.	.	.
1BB-	2D	.	2.d	2.b-
.	2d	2G	.	.
.	.	.	4e	4b-
=113	=113	=113	=113	=113
1F	2c	1A	1f	2a
.	1A	.	.	1a
1D	.	1F	2f	.
.	2A	.	2d	[2f
=114	=114	=114	=114	=114
0BB-	2.D	1.B-	2.f	2f]
.	.	.	.	1d
.	4E	.	4e	.
.	2F	.	2d	.
.	2D	2A	2d	[2f
=115	=115	=115	=115	=115
0C	4E	0G	0c	2f]
.	4C	.	.	.
.	2.c	.	.	4e
.	.	.	.	4d
.	.	.	.	1e
.	4B-	.	.	.
.	2G	.	.	.
=116	=116	=116	=116	=116
[0FF	[0A	[0F	[0c	[0f
=117	=117	=117	=117	=117
0FF]	0A]	0F]	0c]	0f]
!! Tu solus Altissimus
*Ibass	*Itenor	*Itenor	*Icalto	*Icant
!Bassus	!Tenor 2	!Tenor 1	!Altus	!Cantus
*clefF4	*clefGv2	*clefGv2	*clefG2	*clefG2
*k[b-]	*k[b-]	*k[b-]	*k[b-]	*k[b-]
*F:ion	*F:ion	*F:ion	*F:ion	*F:ion
*M4/2	*M4/2	*M4/2	*M4/2	*M4/2
=118	=118	=118	=118	=118
1BB-	1B-	0r	1d	1f
1BB-	1d	.	[1f	1b-
=119	=119	=119	=119	=119
1FF	1c	1F	1f]	1a
2FF	1A	1F	[1c	1f
[2F	.	.	.	.
=120	=120	=120	=120	=120
2F]	1.G	1C	1c]	1.g
4E	.	.	.	.
4D	.	.	.	.
2E	.	1C	[1c	.
2E	2G	.	.	2g
=121	=121	=121	=121	=121
1F	1A	1F	2c]	4f
.	.	.	.	4g
.	.	.	1f	4a
.	.	.	.	4b-
1C	2G	1G	.	[1cc
.	[2c	.	2e	.
=122	=122	=122	=122	=122
2.F	4c]	0A	1f	1cc]
.	4B-	.	.	.
.	4A	.	.	.
4E	4G	.	.	.
1D	2F	.	1f	[1dd
.	2D	.	.	.
=123	=123	=123	=123	=123
0AA	0E	0A	1e	1dd]
.	.	.	2e	1cc
.	.	.	2A	.
=124	=124	=124	=124	=124
2BB-	2r	0G	1d	0b-
2.GG	4G	.	.	.
.	4A	.	.	.
.	4B-	.	2.d	.
4AA	4c	.	.	.
4BB-	[2d	.	.	.
4C	.	.	4e	.
=125	=125	=125	=125	=125
2.D	2d]	0F	2f	2.a
.	2d	.	4F	.
4E	.	.	4G	4g
1F	[1c	.	4A	4f
.	.	.	4B-	4g
.	.	.	4c	4a
.	.	.	4d	4b-
=126	=126	=126	=126	=126
0C	0c]	0G	2e	1cc
.	.	.	1f	.
.	.	.	.	1g
.	.	.	2e	.
=127	=127	=127	=127	=127
[0FF	[0c	[0F	[0f	[0a
=128	=128	=128	=128	=128
0FF]	0c]	0F]	0f]	0a]
!! Amen
*Ibass	*Itenor	*Itenor	*Icalto	*Icant
!Bassus	!Tenor 2	!Tenor 1	!Altus	!Cantus
*clefF4	*clefGv2	*clefGv2	*clefG2	*clefG2
*k[b-]	*k[b-]	*k[b-]	*k[b-]	*k[b-]
*F:ion	*F:ion	*F:ion	*F:ion	*F:ion
*M4/2	*M4/2	*M4/2	*M4/2	*M4/2
=129	=129	=129	=129	=129
0r	0r	0r	1c	1r
.	.	.	1d	1f
=130	=130	=130	=130	=130
0r	1r	0r	1e	1g
.	1F	.	1f	1a
=131	=131	=131	=131	=131
0r	1G	0r	2e	1b-
.	.	.	2d	.
.	1A	.	4c	1a
.	.	.	4d	.
.	.	.	4e	.
.	.	.	4f	.
=132	=132	=132	=132	=132
0r	1B-	0r	1d	2f
.	.	.	.	1g
.	1A	.	[1c	.
.	.	.	.	[2f
=133	=133	=133	=133	=133
1C	1G	1r	1c]	2f]
.	.	.	.	2e
1D	4F	1F	1A	1a
.	4G	.	.	.
.	4A	.	.	.
.	4B-	.	.	.
=134	=134	=134	=134	=134
1E	2c	1G	2r	1g
.	2C	.	2.c	.
1F	2r	1A	.	[1f
.	.	.	4B-	.
.	[2F	.	2c	.
=135	=135	=135	=135	=135
2.BB-	4F]	1B-	1d	0f]
.	4E	.	.	.
.	4D	.	.	.
4C	4E	.	.	.
4D	4F	1A	2r	.
4E	4G	.	.	.
[2F	2A	.	2c	.
=136	=136	=136	=136	=136
2F]	2B-	1G	2d	2r
2E	4c	.	2e	2g
.	4G	.	.	.
1D	1d	1F	2f	2a
.	.	.	2d	2b-
=137	=137	=137	=137	=137
2.C	2r	1E	2e	1cc
.	2G	.	2.g	.
4BB-	.	.	.	.
2AA	2A	1F	.	2c
.	.	.	4f	.
2D	2B-	.	[2f	2d
=138	=138	=138	=138	=138
0C	0c	0G	2f]	2.e
.	.	.	4e	.
.	.	.	4d	4f
.	.	.	1e	1g
=139	=139	=139	=139	=139
[0FF	[0c	[0F	[0f	[0a
=140	=140	=140	=140	=140
0FF]	0c]	0F]	0f]	0a]
==	==	==	==	==
*-	*-	*-	*-	*-
!!!CDT: 1525/^1526/-1594/2/2
!!!OCY: Italia
!!!AGN: Mass (Paraphrase)
!!!AST: renaissance, vocal
!!!ASW: Gregorian Mass
!!!PWK: Masses, Book Mantuan II
!!!RNB: Cadence finals: C
!!!YOR: Le Opere Complete, v. 19, p. 129
!!!YOO: Rome, Italy: Fratelli Scalera
!!!END: 1992//
!!!EED: John Miller
!!!YEC: Copyright 2000, John Miller
!!!YEN: United States of America
!!!YEM: Rights to all derivative electronic formats reserved.
!!!YEM: Refer to licensing agreement for further details.
!!!YEM: This file must be accompanied by the licensing agreement.
!!!YEM: A copy of the licensing agreement may be found at http://www.music-cog.ohio-state.edu/HumdrumDatabases/Palestrina/license.txt
!!!EMD: converted to Humdrum by Bret Aarden
